X: 143
T: Highland Jig
T: Jig, A
C: Sandy MacLean
L: 1/16
M: 6/8
K: A
c4B2 | A2E2A2 c2A2c2| e2c2e2 a6| g6 g2f2d2| B6 B4A2| G2E2G2 B2G2B2| d2B2d2 f6| e6 e2c2B2| A6 c4B2| 
A2E2A2 c2A2c2| e2c2e2 a6| g6 g2f2d2| f6 f4g2| a2b2a2 g2f2e2| f2e2c2 A2c2e2| f2e2f2 g4e2| a6 || 
c2d2^d2 | e2^d2e2 f2e2c2| e2^d2e2 f2e2c2| e2^d2e2 g4f2| d6 d4c2| d2c2d2 f2e2c2| d2c2d2 f2e2c2| d2c2d2 f4e2| c6 c4d2| 
e2^d2e2 f2e2c2| e2^d2e2 f2e2c2| A2c2e2 a2g2=g2| f6 f4g2| a2b2a2 g2f2e2| f2e2c2 A2c2e2| f2e2f2 g4e2| a6 || 
|: a4b2 | c'2a2b2 a6| a2g2a2 e6| a2g2a2 c'2a2e2| d6 d6| E2G2B2 E2G2B2| E2G2B2 g6| f6 f2e2c2| A6 :| 
D: Winston "Scotty" Fitzgerald, Classic Cuts, BBMC 001 (as Traditonal Highland Jig, Set 2)
D: Theresa, Donald and Marie MacLellan, The MacLellan Trio, Breton Books and Music
